X:360
T:The White Birch Reel
R:reel
C:Bruce Osborne  --  Mar.9 1991
M:2/4
L:1/16
Z:abc by Bruce Osborne - bosborne@kos.net
K:G
B,C|D2GB dBGD|B,2A,B, G,2G,2|G,B,DG BdBG|FGAB A2B,C|
D2GB dBGD|B,2A,B, G,2G,2|G,B,DG BdBG|ABAF G2:|
|:B,C|DGBd BGDG|BdBG D2G2|FGA (3BcB AFA|G,A,B,C B,A,G,2|
DGBd BGDG|BdBG D2G2|FGA (3BcB AFA|[G2B2][GB][GB] [G2B2]:|
